X: 25582
T: Market House, The
R: jig
M: 6/8
K: Aminor
|:EAA cBA|age cBA|EAA cBA|GBB dBG|
[1 EAA cBA|age cBA|cde gec|dec BAG:|
[2 ~c3 cde|ged cBA|fed cBA|EA^G A2e||
|:c'2c' c'ba|e2d cBA|dgg aga|bgg dgg|
[1 c'2c' c'ba|e2d cBA|~e3 ^gee|aee bee:|
[2 a2a gag|ege dcA|fed cBA|EA^G A2=G||

